X:105
T:Hesleyside reel
C:Trad
M:4/4
L:1/8
K:A
AB|:c2cc BABc|ABcd e2fg|agaf ecAB|f2B2B2AB|
  |c2cc BABc|ABcd e2fg|agaf edcB|c2A2A2AB:|2c2A2A2ce|
  |:fefg agaf|ecAc e2ce|fefg agaf|ecAc B2AB|
  |c2cc BABc|ABcd e2fg|agaf edcB|1c2A2A2ce:|2c2A2A2 AB|
